src/gen3-ui-component/images/icons/clipboard.svg

<?xml version="1.0" encoding="UTF-8"?>
<svg width="13px" height="13px" viewBox="0 0 13 13" version="1.1" xmlns="http://www.w3.org/2000/svg" xmlns:xlink="http://www.w3.org/1999/xlink">
    <!-- Generator: Sketch 52.3 (67297) - http://www.bohemiancoding.com/sketch -->
    <title>Group-18</title>
    <desc>Created with Sketch.</desc>
    <g id="Page-1" stroke="none" stroke-width="1" fill="none" fill-rule="evenodd">
        <g id="clipboard" fill="#FFFFFF" fill-rule="nonzero">
            <g id="Group-18">
                <g id="medical-records">
                    <path d="M12.5595918,8.75985102 L9.80040816,6.00066735 L9.80040816,1.5567898 C9.80040816,1.25434082 9.55102041,1.00495306 9.24857143,1.00495306 L7.31714286,1.00495306 L7.31714286,0.561891837 C7.31714286,0.259442857 7.0677551,0.010055102 6.76530612,0.010055102 L3.0377551,0.010055102 C2.73530612,0.010055102 2.48591837,0.259442857 2.48591837,0.561891837 L2.48591837,1.00495306 L0.551836735,1.00495306 C0.249387755,1.00495306 0,1.25434082 0,1.5567898 L0,12.4316878 C0,12.7341367 0.249387755,12.9835245 0.551836735,12.9835245 L9.24591837,12.9835245 C9.54836735,12.9835245 9.7977551,12.7341367 9.7977551,12.4316878 L9.7977551,11.6278102 C10.7820408,12.4502592 11.8963265,11.7684224 12.3367347,11.3545449 C13.1114286,10.5825041 13.2202041,9.42311633 12.5595918,8.75985102 Z M3.58959184,1.08719796 L6.21081633,1.08719796 L6.21081633,2.02638163 L3.58959184,2.02638163 L3.58959184,1.08719796 Z M1.07714286,11.9063816 L1.07714286,2.10862653 L2.48591837,2.10862653 L2.48591837,2.54903469 C2.48591837,2.85148367 2.73530612,3.10087143 3.0377551,3.10087143 L6.76265306,3.10087143 C7.03857143,3.10087143 7.28795918,2.85148367 7.3144898,2.57556531 L7.3144898,2.10862653 L8.69408163,2.10862653 L8.69408163,5.17025918 L6.31959184,4.73250408 C6.14714286,4.66087143 5.65897959,4.78025918 5.71204082,5.3400551 L6.18163265,7.87903469 C6.18163265,7.99046327 6.23734694,8.07270816 6.31959184,8.15495306 L8.69408163,10.5294429 L8.69408163,11.9090347 L1.07714286,11.9090347 L1.07714286,11.9063816 Z M11.5646939,10.5825041 C11.3444898,10.7761776 10.877551,11.0786265 10.487551,10.8027082 L7.20571429,7.51821837 L6.90326531,5.91842245 L8.47653061,6.22087143 L11.787551,9.53189184 C11.9785714,9.72556531 11.9520408,10.1951571 11.5646939,10.5825041 Z" id="Shape"></path>
                </g>
            </g>
        </g>
    </g>
</svg>

<svg width="13" height="13" xmlns="http://www.w3.org/2000/svg"><path d="M12.56 8.76 9.8 6V1.558a.555.555 0 0 0-.551-.552H7.317V.562A.555.555 0 0 0 6.765.01H3.038a.555.555 0 0 0-.552.552v.443H.552A.555.555 0 0 0 0 1.557v10.875c0 .302.25.552.552.552h8.694c.302 0 .552-.25.552-.552v-.804c.984.822 2.098.14 2.539-.273.774-.772.883-1.932.223-2.595ZM3.59 1.087h2.62v.94H3.59v-.94Zm-2.513 10.82V2.108h1.409v.44c0 .302.25.552.552.552h3.725c.276 0 .525-.25.551-.525v-.467h1.38V5.17L6.32 4.733c-.173-.072-.661.047-.608.607l.47 2.539c0 .111.055.194.138.276l2.374 2.374v1.38H1.077v-.003Zm10.488-1.324c-.22.193-.687.496-1.077.22L7.206 7.518l-.303-1.6 1.574.303 3.31 3.31c.192.195.165.664-.222 1.052Z" fill="#FFF"/></svg>
